inst/assets/svg/wi-solar-eclipse.svg

<?xml version="1.0" encoding="UTF-8"?>
<svg xmlns="http://www.w3.org/2000/svg" xmlns:xlink="http://www.w3.org/1999/xlink" width="30pt" height="30pt" viewBox="0 0 30 30" version="1.1">
<g id="surface881">
<path style=" stroke:none;fill-rule:nonzero;fill:rgb(0%,0%,0%);fill-opacity:1;" d="M 4.371094 14.621094 C 4.371094 14.378906 4.449219 14.171875 4.621094 14 C 4.789063 13.839844 5 13.761719 5.21875 13.761719 L 7.261719 13.761719 C 7.488281 13.761719 7.679688 13.839844 7.839844 14.011719 C 7.988281 14.179688 8.070313 14.378906 8.070313 14.621094 C 8.070313 14.859375 8 15.058594 7.851563 15.230469 C 7.699219 15.398438 7.5 15.480469 7.269531 15.480469 L 5.230469 15.480469 C 5 15.480469 4.800781 15.398438 4.628906 15.230469 C 4.460938 15.058594 4.371094 14.859375 4.371094 14.621094 Z M 7.230469 21.550781 C 7.230469 21.320313 7.308594 21.121094 7.460938 20.941406 L 8.929688 19.511719 C 9.078125 19.351563 9.28125 19.28125 9.519531 19.28125 C 9.761719 19.28125 9.960938 19.359375 10.121094 19.511719 C 10.28125 19.660156 10.359375 19.851563 10.359375 20.078125 C 10.359375 20.320313 10.28125 20.539063 10.121094 20.71875 L 8.699219 22.140625 C 8.289063 22.460938 7.878906 22.460938 7.46875 22.140625 C 7.308594 21.980469 7.230469 21.78125 7.230469 21.550781 Z M 7.230469 7.710938 C 7.230469 7.480469 7.308594 7.28125 7.460938 7.101563 C 7.660156 6.929688 7.871094 6.851563 8.101563 6.851563 C 8.320313 6.851563 8.519531 6.929688 8.691406 7.089844 L 10.121094 8.558594 C 10.28125 8.710938 10.359375 8.910156 10.359375 9.148438 C 10.359375 9.390625 10.28125 9.589844 10.121094 9.75 C 9.960938 9.910156 9.761719 9.988281 9.519531 9.988281 C 9.28125 9.988281 9.078125 9.910156 8.929688 9.75 L 7.46875 8.320313 C 7.308594 8.160156 7.230469 7.949219 7.230469 7.710938 Z M 9.78125 14.621094 C 9.78125 13.691406 10.011719 12.820313 10.480469 12.019531 C 10.949219 11.21875 11.578125 10.578125 12.390625 10.109375 C 13.199219 9.640625 14.058594 9.410156 14.988281 9.410156 C 15.691406 9.410156 16.359375 9.550781 17.011719 9.828125 C 17.648438 10.109375 18.210938 10.480469 18.671875 10.949219 C 19.140625 11.421875 19.511719 11.96875 19.78125 12.609375 C 20.050781 13.25 20.191406 13.929688 20.191406 14.628906 C 20.191406 15.570313 19.960938 16.441406 19.488281 17.238281 C 19.019531 18.039063 18.390625 18.671875 17.589844 19.140625 C 16.789063 19.609375 15.921875 19.839844 14.980469 19.839844 C 14.039063 19.839844 13.171875 19.609375 12.371094 19.140625 C 11.570313 18.671875 10.941406 18.039063 10.46875 17.238281 C 10.019531 16.429688 9.78125 15.558594 9.78125 14.621094 Z M 14.140625 22.398438 C 14.140625 22.160156 14.21875 21.960938 14.390625 21.800781 C 14.558594 21.640625 14.761719 21.558594 14.988281 21.558594 C 15.230469 21.558594 15.441406 21.640625 15.601563 21.800781 C 15.761719 21.960938 15.839844 22.160156 15.839844 22.398438 L 15.839844 24.390625 C 15.839844 24.628906 15.761719 24.839844 15.589844 25.011719 C 15.421875 25.179688 15.21875 25.261719 14.988281 25.261719 C 14.761719 25.261719 14.550781 25.179688 14.390625 25.011719 C 14.21875 24.839844 14.140625 24.628906 14.140625 24.390625 Z M 14.140625 6.898438 L 14.140625 4.859375 C 14.140625 4.628906 14.21875 4.429688 14.390625 4.261719 C 14.558594 4.089844 14.761719 4 15 4 C 15.238281 4 15.429688 4.078125 15.601563 4.25 C 15.769531 4.421875 15.851563 4.621094 15.851563 4.851563 L 15.851563 6.898438 C 15.851563 7.128906 15.769531 7.320313 15.601563 7.480469 C 15.429688 7.640625 15.230469 7.710938 15 7.710938 C 14.769531 7.710938 14.558594 7.628906 14.398438 7.480469 C 14.238281 7.328125 14.140625 7.128906 14.140625 6.898438 Z M 14.25 11.21875 C 15.121094 11.328125 15.851563 11.710938 16.441406 12.371094 C 17.03125 13.03125 17.328125 13.808594 17.328125 14.699219 C 17.328125 15.53125 17.070313 16.261719 16.550781 16.898438 C 16.03125 17.53125 15.371094 17.941406 14.570313 18.109375 C 14.769531 18.128906 14.921875 18.148438 15.011719 18.148438 C 15.980469 18.148438 16.820313 17.800781 17.511719 17.109375 C 18.199219 16.421875 18.550781 15.589844 18.550781 14.609375 C 18.550781 13.648438 18.199219 12.828125 17.511719 12.140625 C 16.820313 11.460938 15.988281 11.121094 15.011719 11.121094 C 14.738281 11.140625 14.488281 11.171875 14.25 11.21875 Z M 19.660156 20.078125 C 19.660156 19.851563 19.738281 19.660156 19.890625 19.519531 C 20.039063 19.359375 20.230469 19.289063 20.449219 19.289063 C 20.691406 19.289063 20.890625 19.371094 21.050781 19.519531 L 22.511719 20.949219 C 22.671875 21.121094 22.75 21.328125 22.75 21.558594 C 22.75 21.789063 22.671875 21.988281 22.511719 22.148438 C 22.109375 22.460938 21.710938 22.460938 21.308594 22.148438 L 19.890625 20.730469 C 19.738281 20.550781 19.660156 20.339844 19.660156 20.078125 Z M 19.660156 9.160156 C 19.660156 8.910156 19.738281 8.710938 19.890625 8.570313 L 21.308594 7.101563 C 21.480469 6.941406 21.679688 6.859375 21.898438 6.859375 C 22.140625 6.859375 22.339844 6.941406 22.5 7.109375 C 22.671875 7.28125 22.75 7.480469 22.75 7.710938 C 22.75 7.960938 22.671875 8.171875 22.511719 8.328125 L 21.050781 9.761719 C 20.871094 9.921875 20.671875 10 20.449219 10 C 20.21875 10 20.039063 9.921875 19.890625 9.761719 C 19.738281 9.601563 19.660156 9.398438 19.660156 9.160156 Z M 21.921875 14.621094 C 21.921875 14.378906 22 14.179688 22.160156 14 C 22.320313 13.839844 22.511719 13.761719 22.730469 13.761719 L 24.75 13.761719 C 24.980469 13.761719 25.179688 13.851563 25.351563 14.019531 C 25.519531 14.191406 25.609375 14.390625 25.609375 14.621094 C 25.609375 14.851563 25.519531 15.050781 25.351563 15.21875 C 25.179688 15.390625 24.980469 15.46875 24.75 15.46875 L 22.730469 15.46875 C 22.5 15.46875 22.300781 15.390625 22.148438 15.21875 C 22 15.050781 21.921875 14.859375 21.921875 14.621094 Z M 21.921875 14.621094 "/>
</g>
</svg>

<?xml version="1.0" encoding="utf-8"?>
<!-- Generator: Adobe Illustrator 22.0.1, SVG Export Plug-In . SVG Version: 6.00 Build 0)  -->
<svg version="1.1" id="Layer_1" xmlns="http://www.w3.org/2000/svg" xmlns:xlink="http://www.w3.org/1999/xlink" x="0px" y="0px"
	 viewBox="0 0 30 30" style="enable-background:new 0 0 30 30;" xml:space="preserve">
<path d="M4.37,14.62c0-0.24,0.08-0.45,0.25-0.62c0.17-0.16,0.38-0.24,0.6-0.24h2.04c0.23,0,0.42,0.08,0.58,0.25
	c0.15,0.17,0.23,0.37,0.23,0.61S8,15.06,7.85,15.23c-0.15,0.17-0.35,0.25-0.58,0.25H5.23c-0.23,0-0.43-0.08-0.6-0.25
	C4.46,15.06,4.37,14.86,4.37,14.62z M7.23,21.55c0-0.23,0.08-0.43,0.23-0.61l1.47-1.43c0.15-0.16,0.35-0.23,0.59-0.23
	c0.24,0,0.44,0.08,0.6,0.23s0.24,0.34,0.24,0.57c0,0.24-0.08,0.46-0.24,0.64L8.7,22.14c-0.41,0.32-0.82,0.32-1.23,0
	C7.31,21.98,7.23,21.78,7.23,21.55z M7.23,7.71c0-0.23,0.08-0.43,0.23-0.61C7.66,6.93,7.87,6.85,8.1,6.85
	c0.22,0,0.42,0.08,0.59,0.24l1.43,1.47c0.16,0.15,0.24,0.35,0.24,0.59c0,0.24-0.08,0.44-0.24,0.6s-0.36,0.24-0.6,0.24
	c-0.24,0-0.44-0.08-0.59-0.24L7.47,8.32C7.31,8.16,7.23,7.95,7.23,7.71z M9.78,14.62c0-0.93,0.23-1.8,0.7-2.6s1.1-1.44,1.91-1.91
	s1.67-0.7,2.6-0.7c0.7,0,1.37,0.14,2.02,0.42c0.64,0.28,1.2,0.65,1.66,1.12c0.47,0.47,0.84,1.02,1.11,1.66
	c0.27,0.64,0.41,1.32,0.41,2.02c0,0.94-0.23,1.81-0.7,2.61c-0.47,0.8-1.1,1.43-1.9,1.9c-0.8,0.47-1.67,0.7-2.61,0.7
	s-1.81-0.23-2.61-0.7c-0.8-0.47-1.43-1.1-1.9-1.9C10.02,16.43,9.78,15.56,9.78,14.62z M14.14,22.4c0-0.24,0.08-0.44,0.25-0.6
	s0.37-0.24,0.6-0.24c0.24,0,0.45,0.08,0.61,0.24s0.24,0.36,0.24,0.6v1.99c0,0.24-0.08,0.45-0.25,0.62c-0.17,0.17-0.37,0.25-0.6,0.25
	s-0.44-0.08-0.6-0.25c-0.17-0.17-0.25-0.38-0.25-0.62V22.4z M14.14,6.9V4.86c0-0.23,0.08-0.43,0.25-0.6C14.56,4.09,14.76,4,15,4
	s0.43,0.08,0.6,0.25c0.17,0.17,0.25,0.37,0.25,0.6V6.9c0,0.23-0.08,0.42-0.25,0.58S15.23,7.71,15,7.71s-0.44-0.08-0.6-0.23
	S14.14,7.13,14.14,6.9z M14.25,11.22c0.87,0.11,1.6,0.49,2.19,1.15c0.59,0.66,0.89,1.44,0.89,2.33c0,0.83-0.26,1.56-0.78,2.2
	c-0.52,0.63-1.18,1.04-1.98,1.21c0.2,0.02,0.35,0.04,0.44,0.04c0.97,0,1.81-0.35,2.5-1.04s1.04-1.52,1.04-2.5
	c0-0.96-0.35-1.78-1.04-2.47c-0.69-0.68-1.52-1.02-2.5-1.02C14.74,11.14,14.49,11.17,14.25,11.22z M19.66,20.08
	c0-0.23,0.08-0.42,0.23-0.56c0.15-0.16,0.34-0.23,0.56-0.23c0.24,0,0.44,0.08,0.6,0.23l1.46,1.43c0.16,0.17,0.24,0.38,0.24,0.61
	c0,0.23-0.08,0.43-0.24,0.59c-0.4,0.31-0.8,0.31-1.2,0l-1.42-1.42C19.74,20.55,19.66,20.34,19.66,20.08z M19.66,9.16
	c0-0.25,0.08-0.45,0.23-0.59l1.42-1.47c0.17-0.16,0.37-0.24,0.59-0.24c0.24,0,0.44,0.08,0.6,0.25c0.17,0.17,0.25,0.37,0.25,0.6
	c0,0.25-0.08,0.46-0.24,0.62l-1.46,1.43c-0.18,0.16-0.38,0.24-0.6,0.24c-0.23,0-0.41-0.08-0.56-0.24S19.66,9.4,19.66,9.16z
	 M21.92,14.62c0-0.24,0.08-0.44,0.24-0.62c0.16-0.16,0.35-0.24,0.57-0.24h2.02c0.23,0,0.43,0.09,0.6,0.26
	c0.17,0.17,0.26,0.37,0.26,0.6s-0.09,0.43-0.26,0.6c-0.17,0.17-0.37,0.25-0.6,0.25h-2.02c-0.23,0-0.43-0.08-0.58-0.25
	S21.92,14.86,21.92,14.62z"/>
</svg>
